icons/ArrowDownToLine_filled.svg

<svg width="24" height="24" viewBox="0 0 24 24" fill="none" xmlns="http://www.w3.org/2000/svg">
<path fill-rule="evenodd" clip-rule="evenodd" d="M17.8839,10.3839l-5,5c-0.4882,0.4881 -1.2796,0.4881 -1.7678,0l-4.99998,-5c-0.48816,-0.48817 -0.48816,-1.27963 0,-1.76778c0.48815,-0.48816 1.27961,-0.48816 1.76776,0l2.86612,2.86608v-7.4822c0,-0.69036 0.5596,-1.25 1.25,-1.25c0.6904,0 1.25,0.55964 1.25,1.25v7.4822l2.8661,-2.86608c0.4882,-0.48816 1.2796,-0.48816 1.7678,0c0.4881,0.48815 0.4881,1.27961 0,1.76778zM19,17.75c0.6904,0 1.25,0.5596 1.25,1.25c0,0.6904 -0.5596,1.25 -1.25,1.25h-14c-0.69036,0 -1.25,-0.5596 -1.25,-1.25c0,-0.6904 0.55964,-1.25 1.25,-1.25z" fill="#002B51"/>
</svg>

<svg width="24" height="24" viewBox="0 0 24 24" fill="none" xmlns="http://www.w3.org/2000/svg">
<path fill-rule="evenodd" clip-rule="evenodd" d="M17.8839 10.3839L12.8839 15.3839C12.3957 15.872 11.6043 15.872 11.1161 15.3839L6.11612 10.3839C5.62796 9.89573 5.62796 9.10427 6.11612 8.61612C6.60427 8.12796 7.39573 8.12796 7.88388 8.61612L10.75 11.4822V4C10.75 3.30964 11.3096 2.75 12 2.75C12.6904 2.75 13.25 3.30964 13.25 4V11.4822L16.1161 8.61612C16.6043 8.12796 17.3957 8.12796 17.8839 8.61612C18.372 9.10427 18.372 9.89573 17.8839 10.3839ZM5 17.75C4.30964 17.75 3.75 18.3096 3.75 19C3.75 19.6904 4.30964 20.25 5 20.25H19C19.6904 20.25 20.25 19.6904 20.25 19C20.25 18.3096 19.6904 17.75 19 17.75H5Z" fill="#002B51"/>
</svg>
